Papirus-nordic/48x48/places/folder-red-meocloud.svg

<svg xmlns="http://www.w3.org/2000/svg" width="48" height="48" version="1"><rect width="40" height="26" x="4" y="17" rx="2" ry="2" opacity=".2"/><path d="M4 34c0 1.108.892 2 2 2h36c1.108 0 2-.892 2-2V12c0-1.108-.892-2-2-2H22V8c0-1.108-.892-2-2-2H6c-1.108 0-2 .892-2 2" fill="#ae4f58"/><rect width="40" height="26" x="4" y="15" rx="2" ry="2" opacity=".2"/><rect width="36" height="16" x="6" y="13" rx="2" ry="2" fill="#e4e4e4"/><rect width="40" height="26" x="4" y="16" rx="2" ry="2" fill="#bf616a"/><path d="M6 6c-1.108 0-2 .892-2 2v1c0-1.108.892-2 2-2h14c1.108 0 2 .892 2 2V8c0-1.108-.892-2-2-2zm16 4v1h20c1.108 0 2 .892 2 2v-1c0-1.108-.892-2-2-2z" opacity=".1" fill="#fff"/><path d="M21.527 25.623A3.019 3.019 0 0 0 20.4 25.4a3 3 0 0 0-2.97 2.6 3.599 3.599 0 0 0 1.17 7h10.8a3.599 3.599 0 0 0 1.19-6.994c.005-.069.007-.136.01-.205a4.796 4.796 0 0 0-9.073-2.178zM25.799 25h.002a2.77 2.77 0 0 1 2.799 2.799l-.004.068a2 2 0 0 0 1.334 2.028c.647.226 1.069.82 1.07 1.505 0 .908-.692 1.6-1.6 1.6H18.6a1.57 1.57 0 0 1-1.6-1.598V31.4a1.586 1.586 0 0 1 1.08-1.509 2 2 0 0 0 1.332-1.625.98.98 0 0 1 .986-.866 1 1 0 0 1 .372.075 2 2 0 0 0 2.539-.944A2.788 2.788 0 0 1 25.799 25z" fill="#974a4d"/></svg>

<svg xmlns="http://www.w3.org/2000/svg" width="48" height="48" version="1">
 <rect style="opacity:0.2" width="40" height="26" x="4" y="17" rx="2" ry="2"/>
 <path style="fill:#ae4f58" d="M 4,34 C 4,35.108 4.892,36 6,36 H 42 C 43.108,36 44,35.108 44,34 V 12 C 44,10.892 43.108,10 42,10 H 22 V 8 C 22,6.892 21.108,6 20,6 H 6 C 4.892,6 4,6.892 4,8"/>
 <rect style="opacity:0.2" width="40" height="26" x="4" y="15" rx="2" ry="2"/>
 <rect style="fill:#e4e4e4" width="36" height="16" x="6" y="13" rx="2" ry="2"/>
 <rect style="fill:#bf616a" width="40" height="26" x="4" y="16" rx="2" ry="2"/>
 <path style="opacity:0.1;fill:#ffffff" d="M 6,6 C 4.892,6 4,6.892 4,8 V 9 C 4,7.892 4.892,7 6,7 H 20 C 21.108,7 22,7.892 22,9 V 8 C 22,6.892 21.108,6 20,6 Z M 22,10 V 11 H 42 C 43.108,11 44,11.892 44,13 V 12 C 44,10.892 43.108,10 42,10 Z"/>
 <path style="fill:#974a4d" d="M 21.527,25.623 C 21.17,25.477 20.787,25.402 20.4,25.4 18.9,25.4 17.63,26.513 17.43,28 15.978,28.499 15.001,29.864 15,31.4 15,33.389 16.611,35 18.6,35 H 29.4 C 31.389,35 33,33.389 33,31.4 32.999,29.872 32.032,28.511 30.59,28.006 30.595,27.937 30.597,27.87 30.6,27.801 30.6,25.15 28.451,23 25.8,23 23.995,23 22.346,24.015 21.527,25.623 Z M 25.799,25 H 25.801 C 27.37,25 28.599,26.23 28.6,27.799 28.599,27.822 28.596,27.857 28.596,27.867 28.533,28.766 29.079,29.597 29.93,29.895 30.577,30.121 30.999,30.715 31,31.4 31,32.308 30.308,33 29.4,33 H 18.6 C 17.693,33 17.001,32.309 17,31.402 V 31.4 C 17.001,30.712 17.428,30.115 18.08,29.891 18.796,29.645 19.311,29.016 19.412,28.266 19.481,27.757 19.888,27.401 20.398,27.4 20.527,27.401 20.653,27.427 20.77,27.475 21.733,27.869 22.837,27.458 23.309,26.531 23.788,25.589 24.745,25 25.799,25 Z"/>
</svg>
